X:0158
T:The Lasses of Dunse
M:6/8
L:1/8
Q:3/8=120
I: :: ::
Z:Jack Campin * www.campin.me.uk * 2009
K:D
 f/g/ |afd ecA|d2A A2=c| BGB      AGF    |E2E E2
(f/g/)|afd ecA|d2A A2G | FDF      ECE    |D3  D2:|
 F/G/ |AFA BGB|AFA d2A | BGB      AGF    |E2E E2
(f/g/)|afa geg|fdf ecA |(B/c/d)B (c/d/e)c|d3  d2:|
<end>
<start>
